!!!ONB: MCCC : ILB0189_01 : Extracted Monophonic Melody
!!!COM: Beethoven, Ludwig van
!!!OPR: Piano Sonata No.28
!!!OMV: 1
!!!SCT: Op.101
!!!ODT: 1815///
**kern
*thru
*staff1
*clefG2
*k[f#c#g#]
*A:
*M6/8
*MM116
=1
4g#
8a
4b
8cc#
=2
4ee
8dd
4b
8a
=3
4aa
8gg#
4ff#
8ee
=4
4ff#
8ee[
8ee]
8cc#
8b
=5
4g#
8a
4b
8cc#
=6
4ee
8dd
4.cc#
=7
4cc#
8dd#
4ee
8ff#
=8
4gg#
8aa
4bb
8bb#
=9
4.bb#[
8bb#]
8ddd#
8ccc#
=10
4.ff#[
8ff#]
8gg#
8aa
=11
4ee
8dd#
4cc#
8b
=12
4.b
8dd#
8ff#
8ee
=13
4.b
8bb
8aa
8gg#
=14
8gg#
8ff#
8ee
8ee
8dd#
8ee
=15
4b
8b
4b
8a
=16
4.g#
4r
8r
=17
4r
8r
8ff#
8ee
8dd#
=18
4.bb
4.ccc#
=19
[4.gg#
8gg#]
8f##
8g#
=20
8b
8r
8e
4g#
8f#
=21
[4.b
8b]
8a#
8b
=22
8gg#
8r
8e
4g#
8f#
=23
4.b
8r
8a#
8b
=24
*8va
8ee
8gg#
16bb
16eee
8ggg#
8bbb
*X8va
8dd#
=25
4ee
8r
4r
8b
=26
4b
8r
4r
8dd#
=27
4ee
8r
4r
8bb
=28
4bb
8r
4r
8ddd#
=29
*8va
4eee
8fff#[
4fff#]
8eee[
=30
4eee]
8fff#[
4fff#]
8eee[
=31
4eee]
8aaa[
4aaa]
8ggg#[
=32
4ggg#]
8fff#[
4fff#]
8eee[
=33
4eee]
*X8va
8b[
4b]
8b[
=34
4b]
8b[
4b]
8b
=35
[2.b
=36
4.b_
4b]
[8cc#
=37
4cc#]
8cc#[
4cc#]
8cc#
=38
[2.cc#
=39
4.cc#_
4cc#]
[8cc#
=40
4cc#]
8cc#[
4cc#]
8cc#
=41
4ff#
8gg#
4aa
8bb
=42
4ddd
8ccc#
4aa
8aa
=43
4ddd
8ccc#
4aa
8aa
=44
4ddd
8ccc#
4aa
8aa
=45
4ddd
8ccc#
4aa
8aa
=46
*8va
4eee
8ddd
4aa
8ccc#
=47
4ggg
8fff#
4ccc#
8ddd
=48
4ggg
8fff#
4bb#
8ccc#
*X8va
=49
4ee#
8ff#
4cc#
8b#
=50
4bb#
8aa
4gg#
8ff#
=51
4ee
8dd#
4cc#
8b#
=52
4.dd#
4dd#
8ee
=53
4.ee
4ee
8ff#
=54
4.ff#
4ff#
8gg#
=55
4gg#
8aa
4bb
8ccc
=56
4eee
8ddd
[4.bb
=57
4bb]
8aa
4gg#
8aa
=58
8gg#
4b
4bb
8ccc#
=59
4eee
8ddd
8bb
8b
8cc#
=60
4dd
8dd#
4ee
8ee#
=61
4.ee#[
8ee#]
8gg#
8ff#
=62
4.b[
8b]
8cc#
8dd
=63
4a
8g#
4f#
8e
=64
4.e
8g#
8b
8a
=65
4.e
8ee
8dd
8cc#
=66
8cc#
8b
8a
8a
8g#
8a
=67
4e
8e
4e
8d
=68
4.c#
4r
8r
=69
4r
8r
8bb
8aa
8gg#
=70
4.eee
4.fff#
=71
[4.ccc#
8ccc#]
8b#
8cc#
=72
8ee
8r
8a
4cc#
8b
=73
[4.ee
8ee]
8dd#
8ee
=74
8ccc#
8r
8a
4cc#
8b
=75
4.ee
8r
8dd#
8ee
=76
8gg#
8aa
8ccc#
8eee
8aaa
8g#
=77
4a
8r
4r
8e
=78
4e
8r
4r
8g#
=79
4a
8r
4r
8ee
=80
4ee
8r
4r
8gg#
=81
4aa
8bb[
4bb]
8aa[
=82
4aa]
8bb[
4bb]
8aa[
=83
4aa]
8ddd[
4ddd]
8ccc#[
=84
4ccc#]
8bb[
4bb]
8aa[
=85
4aa]
8gg[
4gg]
[8ff
=86
4ff]
[8ff
4ff]
[8ff
=87
2.ff_
=88
4.ff]
4.ee
=89
2.dd#
=90
4.ee[
8ee]
8dd
8cc#
=91
8cc#
8b
8a
4.g#
=92
8a
8b
8cc#
4.aa
=93
4.bb
4.ccc
=94
4.eee
8ccc#
8aa
8ee
=95
8ff#
8dd
8cc#
8b
8e
[8ee
=96
4ee]
8r
4r
8cc#[
=97
4cc#]
8r
4r
8e[
=98
8e]
8r
8r
4r
8r
=99
4r
8r
8B
8A
8G#
=100
4.e
8ee
8ee
8ee
=101
8aa
8bb
8eee
*8va
8eee
8fff#
8ggg#
=102
4.ggg#
4.aaa
*X8va
==
*-
